icon-themes/breeze_svg/cmd/lc_aligncenter.svg

<svg viewBox="0 0 24 24" xmlns="http://www.w3.org/2000/svg"><path d="m11.5 4v1h-2.5v1 3 1h2.5v4h-5.5v1 4h1 4.5v1h1v-1h5.5v-1-3-1h-5.5v-4h1.5 1v-1-3-1h-1-1.5v-1zm-1.5 2h4v3h-4zm-3 9h10v3h-10z" fill="#4d4d4d"/></svg>

<svg xmlns="http://www.w3.org/2000/svg" viewBox="0 0 24 24">
 <path 
     style="fill:#4d4d4d" 
     d="M 11.5 4 L 11.5 5 L 9 5 L 9 6 L 9 9 L 9 10 L 11.5 10 L 11.5 14 L 6 14 L 6 15 L 6 19 L 7 19 L 11.5 19 L 11.5 20 L 12.5 20 L 12.5 19 L 18 19 L 18 18 L 18 15 L 18 14 L 12.5 14 L 12.5 10 L 14 10 L 15 10 L 15 9 L 15 6 L 15 5 L 14 5 L 12.5 5 L 12.5 4 L 11.5 4 z M 10 6 L 14 6 L 14 9 L 10 9 L 10 6 z M 7 15 L 17 15 L 17 18 L 7 18 L 7 15 z "
     />
 </svg>
